dist/images/money.svg

<svg width="30" height="19" viewBox="0 0 30 19" fill="none" xmlns="http://www.w3.org/2000/svg">
<path d="M16.5 10.6522H15.75V6.46739C15.75 6.2572 15.5822 6.08696 15.375 6.08696H14.7384C14.5163 6.08696 14.2992 6.15353 14.1145 6.2786L13.3959 6.76461C13.355 6.79229 13.3198 6.82789 13.2923 6.86938C13.2649 6.91088 13.2458 6.95744 13.2362 7.00642C13.2265 7.0554 13.2265 7.10583 13.236 7.15482C13.2456 7.20382 13.2646 7.25043 13.2919 7.29198L13.7081 7.92493C13.7354 7.96651 13.7705 8.00222 13.8114 8.03003C13.8523 8.05784 13.8982 8.0772 13.9465 8.08701C13.9948 8.09681 14.0445 8.09687 14.0928 8.08717C14.1411 8.07748 14.187 8.05822 14.228 8.0305L14.25 8.01576V10.6522H13.5C13.2928 10.6522 13.125 10.8224 13.125 11.0326V11.7935C13.125 12.0037 13.2928 12.1739 13.5 12.1739H16.5C16.7072 12.1739 16.875 12.0037 16.875 11.7935V11.0326C16.875 10.8224 16.7072 10.6522 16.5 10.6522ZM28.5 0H1.5C0.671719 0 0 0.681454 0 1.52174V16.7391C0 17.5794 0.671719 18.2609 1.5 18.2609H28.5C29.3283 18.2609 30 17.5794 30 16.7391V1.52174C30 0.681454 29.3283 0 28.5 0ZM2.25 15.9783V12.9348C3.90703 12.9348 5.25 14.2972 5.25 15.9783H2.25ZM2.25 5.32609V2.28261H5.25C5.25 3.96366 3.90703 5.32609 2.25 5.32609ZM15 14.4565C12.5147 14.4565 10.5 12.0717 10.5 9.13044C10.5 6.18872 12.5147 3.80435 15 3.80435C17.4853 3.80435 19.5 6.18872 19.5 9.13044C19.5 12.0726 17.4844 14.4565 15 14.4565ZM27.75 15.9783H24.75C24.75 14.2972 26.093 12.9348 27.75 12.9348V15.9783ZM27.75 5.32609C26.093 5.32609 24.75 3.96366 24.75 2.28261H27.75V5.32609Z" fill="#FC9908"/>
</svg>

<svg width="30" height="19" fill="none" xmlns="http://www.w3.org/2000/svg"><path d="M16.5 10.652h-.75V6.467c0-.21-.168-.38-.375-.38h-.637c-.222 0-.439.067-.623.192l-.72.486a.38.38 0 0 0-.159.39.4.4 0 0 0 .056.137l.416.633a.378.378 0 0 0 .239.162.37.37 0 0 0 .281-.056l.022-.015v2.636h-.75a.378.378 0 0 0-.375.38v.761c0 .21.168.38.375.38h3c.207 0 .375-.17.375-.38v-.76c0-.21-.168-.38-.375-.38zM28.5 0h-27C.672 0 0 .681 0 1.522v15.217c0 .84.672 1.522 1.5 1.522h27c.828 0 1.5-.682 1.5-1.522V1.522C30 .682 29.328 0 28.5 0zM2.25 15.978v-3.043c1.657 0 3 1.362 3 3.043h-3zm0-10.652V2.283h3c0 1.68-1.343 3.043-3 3.043zM15 14.456c-2.485 0-4.5-2.384-4.5-5.326 0-2.941 2.015-5.326 4.5-5.326s4.5 2.385 4.5 5.326c0 2.943-2.016 5.326-4.5 5.326zm12.75 1.522h-3c0-1.68 1.343-3.043 3-3.043v3.043zm0-10.652c-1.657 0-3-1.362-3-3.043h3v3.043z" fill="#FC9908"/></svg>
